app/images/dist/size.svg

<svg width="20" height="20" viewBox="0 0 20 20" fill="none" xmlns="http://www.w3.org/2000/svg">
<path d="M15.0004 5.96675C14.9504 5.95842 14.8921 5.95842 14.8421 5.96675C13.6921 5.92508 12.7754 4.98342 12.7754 3.81675C12.7754 2.62508 13.7337 1.66675 14.9254 1.66675C16.1171 1.66675 17.0754 2.63342 17.0754 3.81675C17.0671 4.98342 16.1504 5.92508 15.0004 5.96675Z" stroke="#292D32" stroke-width="1.5" stroke-linecap="round" stroke-linejoin="round"/>
<path d="M14.1422 12.0334C15.2839 12.2251 16.5422 12.0251 17.4255 11.4334C18.6005 10.6501 18.6005 9.36676 17.4255 8.58343C16.5339 7.99176 15.2589 7.79176 14.1172 7.99176" stroke="#292D32" stroke-width="1.5" stroke-linecap="round" stroke-linejoin="round"/>
<path d="M4.97344 5.96675C5.02344 5.95842 5.08177 5.95842 5.13177 5.96675C6.28177 5.92508 7.19844 4.98342 7.19844 3.81675C7.19844 2.62508 6.24011 1.66675 5.04844 1.66675C3.85677 1.66675 2.89844 2.63342 2.89844 3.81675C2.90677 4.98342 3.82344 5.92508 4.97344 5.96675Z" stroke="#292D32" stroke-width="1.5" stroke-linecap="round" stroke-linejoin="round"/>
<path d="M5.83255 12.0334C4.69088 12.2251 3.43255 12.0251 2.54922 11.4334C1.37422 10.6501 1.37422 9.36676 2.54922 8.58343C3.44089 7.99176 4.71588 7.79176 5.85755 7.99176" stroke="#292D32" stroke-width="1.5" stroke-linecap="round" stroke-linejoin="round"/>
<path d="M10.0004 12.1916C9.95039 12.1833 9.89206 12.1833 9.84206 12.1916C8.69206 12.1499 7.77539 11.2083 7.77539 10.0416C7.77539 8.84994 8.73372 7.8916 9.92539 7.8916C11.1171 7.8916 12.0754 8.85827 12.0754 10.0416C12.0671 11.2083 11.1504 12.1583 10.0004 12.1916Z" stroke="#292D32" stroke-width="1.5" stroke-linecap="round" stroke-linejoin="round"/>
<path d="M7.57461 14.8166C6.39961 15.5999 6.39961 16.8832 7.57461 17.6666C8.90794 18.5582 11.0913 18.5582 12.4246 17.6666C13.5996 16.8832 13.5996 15.5999 12.4246 14.8166C11.0996 13.9332 8.90794 13.9332 7.57461 14.8166Z" stroke="#292D32" stroke-width="1.5" stroke-linecap="round" stroke-linejoin="round"/>
</svg>

<svg width="20" height="20" fill="none" xmlns="http://www.w3.org/2000/svg"><path d="M15 5.967a.505.505 0 0 0-.158 0 2.144 2.144 0 0 1-2.067-2.15A2.15 2.15 0 1 1 15 5.967Zm-.858 6.066c1.142.192 2.4-.008 3.284-.6 1.175-.783 1.175-2.066 0-2.85-.892-.591-2.167-.791-3.309-.591M4.973 5.967a.505.505 0 0 1 .159 0 2.144 2.144 0 0 0 2.066-2.15c0-1.192-.958-2.15-2.15-2.15a2.15 2.15 0 0 0-.075 4.3Zm.86 6.066c-1.142.192-2.4-.008-3.284-.6-1.175-.783-1.175-2.066 0-2.85.892-.591 2.167-.791 3.309-.591m4.142 4.2a.507.507 0 0 0-.158 0 2.144 2.144 0 0 1-2.067-2.15 2.15 2.15 0 1 1 4.3 0c-.008 1.166-.925 2.116-2.075 2.15Zm-2.425 2.625c-1.175.783-1.175 2.066 0 2.85 1.333.891 3.516.891 4.85 0 1.175-.784 1.175-2.067 0-2.85-1.325-.884-3.517-.884-4.85 0Z" stroke="#292D32" stroke-width="1.5" stroke-linecap="round" stroke-linejoin="round"/></svg>
